X: 2
T: Farewell To Waverly Park
R: reel
M: 4/4
L: 1/8
K: Emaj
K:F#dor
AB|:c2Ac Fcc=c|B2GB EBGB|B2FB DBFB|A2FA =DAFA|
c2Ac Fcc=c|B2GB EBGB|B2=GB EBGB|AF=DE FEE2:|
|:B2=GB EBGB|B2FB =DBFB|A2FA =DAFA|ceAc BEAB|
c2Ac Fcc=c|B2GB EBGB|B2=GB =DBGB|AF=DE FEE2:|
|:=c2=Gc EcGc|=c2Ac =FcAc|B2=GB EBGB|B2FB DBFB|
c2Ac Fcc=c|B2GB EBGB|B2FB DBFB|AFDE FEE2:|

